X:183
T: Feiner Knab (2-87) S. 255
N: P0958
O: Lothringen
S: PINCK, Louis: Verklingende Weisen, Bd 2, Metz 1928]
R: Liebe, Tod, Trauer]
M: 3/4
L: 1/8
K: G
GGB | d2Bded | c2B
dBB | B2GBcA | A2G
GGB | d2Bddd | c2B
dBB | B2GBcA | A2G
GGB | d2Bddd | c2B
dBB | B2GBcA | A2G

